Obsidian/actions/22s/forecast.svg

<svg height="22" width="22" xmlns="http://www.w3.org/2000/svg"><path d="m11 3a7 7 0 0 0 -7 7 7 7 0 0 0 1.523438 4.359375c.380832-.211718.809472-.34375 1.277343-.34375h.117188l.113281.02734s2.867585.636717 3.96875.636719c1.101164-.000003 3.96875-.636719 3.96875-.636719l.03711-.0098.03711-.0059c.530912-.08394 1.028506.05349 1.457031.291015a7 7 0 0 0 1.499999-4.31828 7 7 0 0 0 -7-7zm.394531 2.0507812.40625.2714844.453125-.1816406-.130859.4707031.310547.375-.486328.019531-.261719.4140628-.167969-.4589844-.474609-.1210937.384765-.3007813zm-3.361328 2.4121094.642578.4296875.716797-.2871093-.208984.7441406.49414.59375-.771484.03125-.414062.6523437-.267579-.7246093-.748046-.1894532.607421-.4785156zm3.460938 1.9140625 1.142578.7636719 1.277343-.5097656-.373046 1.3242186.878906 1.058594-1.373047.05273-.734375 1.164067-.476562-1.291016-1.332032-.337891 1.080078-.851562zm4.066406 5.6347659c-.116702-.01578-.237931-.0156-.361328.0039 0 0-2.785006.664063-4.199219.664063-1.414214 0-4.199219-.664063-4.199219-.664063-.9972.000006-1.800781.888501-1.800781 1.992193 0 1.103695.803581 1.992188 1.800781 1.992188h8.398438c.9972 0 1.800781-.888493 1.800781-1.992188 0-.965731-.622542-1.885623-1.439453-1.996093z" fill="#bebebe"/></svg>

<svg xmlns="http://www.w3.org/2000/svg" width="22" height="22" version="1.1">
 <defs>
  <style id="current-color-scheme" type="text/css">
   .ColorScheme-Text { color:#bebebe; } .ColorScheme-Highlight { color:#4285f4; }
  </style>
 </defs>
 <path style="fill:currentColor" class="ColorScheme-Text" d="m 11,3 a 7,7 0 0 0 -7,7 7,7 0 0 0 1.523438,4.359375 c 0.380832,-0.211718 0.809472,-0.34375 1.277343,-0.34375 h 0.117188 l 0.113281,0.02734 c 0,0 2.867585,0.636717 3.96875,0.636719 1.101164,-3e-6 3.96875,-0.636719 3.96875,-0.636719 l 0.03711,-0.0098 0.03711,-0.0059 c 0.530912,-0.08394 1.028506,0.05349 1.457031,0.291015 A 7,7 0 0 0 18,10 7,7 0 0 0 11,3 Z m 0.394531,2.0507812 0.40625,0.2714844 0.453125,-0.1816406 -0.130859,0.4707031 0.310547,0.375 -0.486328,0.019531 L 11.685547,6.4199219 11.517578,5.9609375 11.042969,5.8398438 11.427734,5.5390625 Z M 8.033203,7.4628906 8.675781,7.8925781 9.392578,7.6054688 9.183594,8.3496094 9.677734,8.9433594 8.90625,8.9746094 8.492188,9.6269531 8.224609,8.9023438 7.476563,8.7128906 8.083984,8.234375 Z m 3.460938,1.9140625 1.142578,0.7636719 1.277343,-0.5097656 -0.373046,1.3242186 0.878906,1.058594 -1.373047,0.05273 L 12.3125,13.230469 11.835938,11.939453 10.503906,11.601562 11.583984,10.75 Z m 4.066406,5.6347659 c -0.116702,-0.01578 -0.237931,-0.0156 -0.361328,0.0039 0,0 -2.785006,0.664063 -4.199219,0.664063 -1.414214,0 -4.199219,-0.664063 -4.199219,-0.664063 C 5.803581,15.015625 5,15.90412 5,17.007812 5,18.111507 5.803581,19 6.800781,19 h 8.398438 C 16.196419,19 17,18.111507 17,17.007812 17,16.042081 16.377458,15.122189 15.560547,15.011719 Z"/>
</svg>
